public/assets/img/main-point1.svg

<svg width="63" height="45" viewBox="0 0 63 45" fill="none" xmlns="http://www.w3.org/2000/svg">
<path d="M0 0.965584C0.679083 0.160153 1.05096 0.095718 1.9564 0.611194C3.71879 1.62604 5.465 2.64088 7.21121 3.63962C7.63159 3.88125 7.9388 4.18731 7.85795 4.70279C7.74477 5.36324 7.04952 5.6532 6.40278 5.29881C5.12546 4.57392 3.84813 3.83292 2.57081 3.09192C2.36062 2.97916 2.15043 2.8664 1.87556 2.70532C1.85939 2.89862 1.82706 3.0436 1.82706 3.18858C1.82706 9.06823 1.82706 14.9479 1.81089 20.8275C1.81089 21.198 1.9079 21.4074 2.23127 21.5846C3.37924 22.2129 4.51105 22.8733 5.70753 23.566C8.40769 18.8945 11.0917 14.2552 13.808 9.5676C12.7732 8.95547 11.7384 8.37556 10.7198 7.77954C10.5258 7.66678 10.3156 7.57013 10.1539 7.44126C9.74968 7.11908 9.66884 6.70026 9.91137 6.26533C10.1701 5.81428 10.6228 5.66931 11.0593 5.91094C12.5307 6.71637 13.9697 7.55402 15.4087 8.42388C15.6351 8.56886 15.8453 8.93936 15.8614 9.22931C15.8776 9.63203 16.0716 9.79312 16.3627 9.9542C17.2196 10.4375 18.0927 10.9046 18.9335 11.4362C19.3377 11.6939 19.6287 12.1289 20.0329 12.4027C20.4533 12.6927 20.9384 12.9021 21.4234 13.0793C22.1834 13.3692 22.8948 13.3209 23.6385 12.8538C25.0937 11.9195 26.6297 11.0979 28.1334 10.2442C30.1383 9.10045 32.1594 9.08434 34.1805 10.2119C35.4901 10.9368 36.7675 11.6939 38.061 12.4349C39.0472 12.9987 40.1144 13.1437 41.2138 12.8376C41.6342 12.7249 42.0384 12.596 42.2486 12.1128C42.3456 11.9033 42.6205 11.7584 42.8469 11.6295C43.8332 11.0496 44.8356 10.4858 45.8219 9.88977C45.9998 9.77701 46.0806 9.50316 46.2099 9.30986C46.4201 8.97158 46.5657 8.48832 46.8729 8.31112C51.3677 5.68541 55.8788 3.10803 60.3898 0.514543C61.0528 0.127935 61.457 0.272913 62.0875 1.01391C62.0875 8.05338 62.0875 15.109 62.0875 22.1484C61.845 22.3901 61.6348 22.68 61.36 22.8411C59.8886 23.711 58.3849 24.5486 56.9136 25.4185C56.4609 25.6762 56.0243 25.7407 55.5392 25.499C55.4099 25.4346 55.2159 25.4024 55.1027 25.4507C54.0679 26.0306 53.0493 26.6266 52.0307 27.2066C52.6936 30.1866 51.9822 31.6364 49.3467 32.6029C49.7832 34.0849 49.573 35.4542 48.4574 36.5979C47.3579 37.7255 45.9836 37.951 44.4314 37.5644C44.3829 39.0142 43.8332 40.174 42.6043 40.915C41.3755 41.656 40.082 41.6399 38.74 41.0761C38.7077 41.366 38.6915 41.6077 38.643 41.8654C38.1256 44.3622 35.4578 45.667 33.1457 44.5394C32.4504 44.2012 31.8037 43.7984 31.1408 43.4118C30.8659 43.2507 30.6719 43.2507 30.3809 43.4118C29.8311 43.734 29.2491 44.0723 28.6508 44.2334C26.3387 44.8455 24.2529 43.3474 23.8649 40.8183C22.5229 41.3983 21.1809 41.4788 19.9036 40.6573C18.6424 39.8518 18.125 38.6276 18.0927 37.1295C16.7507 37.2422 15.5542 36.9362 14.6164 35.9213C13.6787 34.9065 13.4361 33.7144 13.6787 32.3774C13.4038 32.313 13.1451 32.2486 12.9026 32.1841C11.0593 31.6203 9.87903 29.7195 10.2671 27.8509C10.3479 27.4804 10.2671 27.3032 9.94371 27.1421C9.0221 26.6427 8.13282 26.0951 7.21121 25.5957C7.01719 25.499 6.74232 25.5474 6.49979 25.5313C6.09557 25.5151 5.62668 25.6279 5.30331 25.4668C3.71879 24.6131 2.18277 23.711 0.630577 22.7928C0.388047 22.6478 0.210192 22.374 0 22.1645C0 15.0606 0 8.02117 0 0.965584ZM42.6852 14.2069C40.3892 15.2217 38.3197 14.819 36.3309 13.5303C35.3123 12.8699 34.2452 12.3061 33.1942 11.7262C31.9007 11.0174 30.5587 10.9852 29.2652 11.6939C27.2118 12.8215 25.2069 14.0136 23.1858 15.1734C22.5714 15.5278 22.2319 16.1077 22.2157 16.8165C22.1834 17.5897 22.5229 18.1857 23.1858 18.5884C23.8811 19.0073 24.6087 18.975 25.3201 18.5723C27.1471 17.5253 28.958 16.4943 30.7689 15.4311C31.5288 14.9801 32.2888 14.964 33.0648 15.415C33.938 15.9144 34.8111 16.4138 35.6842 16.9292C36.2662 17.2675 36.4118 17.7669 36.1369 18.234C35.862 18.7012 35.3446 18.814 34.7787 18.5079C33.9865 18.073 33.1942 17.6219 32.4181 17.1548C32.0624 16.9292 31.7875 16.9615 31.4318 17.1709C29.6694 18.2018 27.9232 19.2328 26.1285 20.2154C23.8002 21.488 21.0677 20.2798 20.4695 17.7347C20.2431 16.7359 20.421 15.7855 20.9384 14.8673C20.4048 14.6579 19.9359 14.4646 19.4024 14.2391C17.4945 17.5414 15.5866 20.8275 13.6948 24.1137C13.7272 24.162 13.7757 24.1942 13.808 24.2426C15.4895 23.0505 17.2519 22.6478 18.9658 23.9687C20.5827 25.193 20.8414 26.8683 20.1299 28.7208C21.9893 29.4618 22.8624 30.831 22.8463 32.7801C23.9942 32.6996 24.9805 32.9734 25.8213 33.6661C26.6621 34.3749 27.0986 35.2931 27.228 36.3724C30.7527 35.4864 33.3236 38.6437 32.0139 41.7526C32.5798 42.0748 33.1457 42.4292 33.7278 42.7514C34.8272 43.3474 36.0884 43.0413 36.6381 42.0587C37.1879 41.06 36.816 39.9163 35.7327 39.288C35.2476 38.9981 34.6979 38.7726 34.2937 38.4182C34.0511 38.2087 33.8733 37.7416 33.938 37.4516C34.0026 37.1778 34.3907 36.9039 34.6979 36.8073C34.9081 36.7429 35.2314 36.9039 35.474 37.0328C36.816 37.7899 38.1256 38.5631 39.4676 39.3202C40.5671 39.9324 41.8121 39.6424 42.3618 38.6437C42.9277 37.6449 42.572 36.5173 41.4725 35.873C40.1629 35.1159 38.8532 34.3588 37.5436 33.6017C37.3657 33.505 37.1879 33.4084 37.0423 33.2634C36.7351 32.9251 36.6705 32.5385 36.9453 32.168C37.204 31.7975 37.5436 31.6364 37.9963 31.7975C38.2065 31.8781 38.4005 31.9908 38.5945 32.1036C40.5833 33.2473 42.5558 34.4232 44.5769 35.5186C45.0458 35.7763 45.6602 35.8891 46.1776 35.8408C46.9699 35.7763 47.6005 35.0515 47.6975 34.3266C47.8268 33.4084 47.5519 32.6513 46.7112 32.168C45.3207 31.3465 43.914 30.5571 42.5235 29.7517C41.7474 29.3168 40.9713 28.8818 40.2276 28.4147C39.7263 28.1086 39.597 27.6254 39.8395 27.1743C40.0982 26.7072 40.6156 26.5783 41.1492 26.8361C41.2785 26.9005 41.3917 26.9649 41.521 27.0455C43.526 28.2053 45.547 29.349 47.5519 30.5088C48.3119 30.9438 49.0556 30.9115 49.767 30.4283C50.4461 29.9611 50.5916 29.2685 50.4623 28.5114C50.333 27.7381 49.8479 27.2388 49.185 26.8522C45.8057 24.9191 42.4427 22.9861 39.0634 21.0369C38.8694 20.9242 38.5945 20.8436 38.5299 20.6664C38.4005 20.3443 38.2388 19.9254 38.352 19.6355C38.449 19.3939 38.8856 19.2006 39.2089 19.1361C39.4191 19.0878 39.694 19.265 39.9203 19.3939C42.5558 20.9081 45.1913 22.4223 47.843 23.9365C48.0208 24.0331 48.1987 24.1298 48.3765 24.2103C48.3927 24.1781 48.4251 24.1459 48.4412 24.0976C46.5172 20.8114 44.6093 17.5414 42.6852 14.2069ZM48.2634 9.55149C48.3927 9.77701 48.4897 9.9542 48.5867 10.1153C49.9126 12.4027 51.2384 14.674 52.5319 16.9615C52.6774 17.2192 52.8553 17.6058 52.7744 17.8474C52.6774 18.1374 52.354 18.4435 52.063 18.5562C51.6103 18.7173 51.2707 18.4112 51.0282 18.0085C49.8317 15.9305 48.6352 13.8686 47.4226 11.7906C47.3094 11.6134 47.1962 11.4201 47.0669 11.2268C46.0483 11.8067 45.0781 12.3705 44.0595 12.9504C46.4848 17.1225 48.8778 21.2625 51.2869 25.4346C52.3217 24.8386 53.2918 24.2909 54.2943 23.6949C53.9709 23.1472 53.6799 22.6156 53.3727 22.1001C53.0008 21.4558 53.0816 20.9242 53.5667 20.6342C54.0841 20.3282 54.5691 20.5215 54.9572 21.1658C55.4099 21.939 55.8626 22.7283 56.3315 23.5338C57.4957 22.8733 58.6113 22.2129 59.7269 21.6007C60.0826 21.4074 60.2282 21.1819 60.2282 20.7631C60.212 14.9318 60.212 9.08434 60.212 3.25301C60.212 3.09192 60.1958 2.91473 60.1796 2.6731C56.2022 4.99274 52.2408 7.28017 48.2634 9.55149ZM14.9722 11.2429C12.5469 15.4311 10.1539 19.555 7.74477 23.7271C8.7634 24.307 9.73352 24.8708 10.7683 25.4668C13.1936 21.2947 15.5866 17.1548 17.9957 12.9987C16.9771 12.3866 16.0069 11.8228 14.9722 11.2429ZM14.1476 30.4605C14.2284 30.4444 14.4871 30.4444 14.6973 30.3477C15.7644 29.7517 16.8639 29.204 17.8825 28.5114C18.7233 27.9475 18.8688 26.7877 18.3352 25.9179C17.8178 25.0802 16.7345 24.7097 15.8614 25.1608C14.8266 25.6923 13.808 26.2722 12.8379 26.9166C12.1103 27.3837 11.8839 28.2858 12.1426 29.1074C12.3852 29.9128 13.1289 30.4605 14.1476 30.4605ZM18.9658 30.3477C18.6586 30.4283 18.3352 30.4766 18.0442 30.6055C17.446 30.9115 16.8801 31.2337 16.3141 31.6042C15.3925 32.2002 15.1338 33.3278 15.6674 34.246C16.1848 35.1481 17.2843 35.5186 18.222 35.0676C18.8688 34.7615 19.4994 34.391 20.1138 33.9883C20.8575 33.4889 21.1324 32.5868 20.8575 31.7492C20.5988 30.9438 19.8551 30.4122 18.9658 30.3477ZM22.1995 39.3847C23.1696 39.0464 24.3176 38.6115 25.0614 37.5805C25.5626 36.8878 25.4171 35.9374 24.8512 35.2931C24.2853 34.6487 23.396 34.391 22.6037 34.7454C21.9408 35.0515 21.2779 35.422 20.6797 35.8569C19.9844 36.3563 19.7581 37.2744 20.0491 38.0799C20.3563 38.8692 21.1162 39.4008 22.1995 39.3847ZM25.692 40.319C25.692 41.4144 26.3064 42.2037 27.2118 42.4131C28.3113 42.6708 29.9928 41.7688 30.3647 40.6895C30.7689 39.5297 29.9928 38.241 28.7802 38.0477C27.81 37.9027 26.2094 38.8048 25.8375 39.723C25.7566 39.9646 25.7243 40.2223 25.692 40.319Z" fill="white"/>
</svg>

<svg width="63" height="45" fill="none" xmlns="http://www.w3.org/2000/svg"><path d="M0 .966C.68.16 1.051.096 1.956.61 3.72 1.626 5.465 2.641 7.211 3.64c.42.241.728.547.647 1.063-.113.66-.808.95-1.455.596A466.905 466.905 0 0 1 2.57 3.092c-.21-.113-.42-.226-.695-.387-.017.194-.049.339-.049.484 0 5.88 0 11.759-.016 17.639 0 .37.097.58.42.757 1.148.628 2.28 1.288 3.477 1.981 2.7-4.671 5.384-9.31 8.1-13.998-1.035-.613-2.07-1.192-3.088-1.788-.194-.113-.404-.21-.566-.339-.404-.322-.485-.74-.243-1.176.26-.45.712-.596 1.148-.354 1.472.805 2.91 1.643 4.35 2.513.226.145.436.515.452.805.017.403.21.564.502.725.857.483 1.73.95 2.57 1.482.405.258.696.693 1.1.967.42.29.905.5 1.39.676.76.29 1.472.242 2.216-.225 1.455-.934 2.99-1.756 4.494-2.61 2.005-1.144 4.026-1.16 6.048-.032 1.31.725 2.587 1.482 3.88 2.223.986.564 2.053.709 3.153.403.42-.113.824-.242 1.035-.725.097-.21.371-.355.598-.483.986-.58 1.989-1.144 2.975-1.74.178-.113.259-.387.388-.58.21-.338.356-.822.663-.999C51.368 5.685 55.879 3.108 60.39.515c.663-.387 1.067-.242 1.697.499v21.134c-.242.242-.452.532-.727.693-1.471.87-2.975 1.708-4.446 2.578-.453.257-.89.322-1.375.08-.13-.064-.323-.097-.436-.048-1.035.58-2.054 1.176-3.072 1.756.663 2.98-.049 4.43-2.684 5.396.436 1.482.226 2.851-.89 3.995-1.1 1.127-2.473 1.353-4.026.966-.048 1.45-.598 2.61-1.827 3.351-1.228.741-2.522.725-3.864.161-.032.29-.049.532-.097.79-.517 2.496-3.185 3.801-5.497 2.673-.696-.338-1.342-.74-2.005-1.127-.275-.161-.47-.161-.76 0-.55.322-1.132.66-1.73.821-2.312.613-4.398-.886-4.786-3.415-1.342.58-2.684.66-3.961-.16-1.262-.806-1.779-2.03-1.811-3.529-1.342.113-2.539-.193-3.477-1.208-.937-1.014-1.18-2.207-.937-3.544a26.876 26.876 0 0 1-.776-.193c-1.844-.564-3.024-2.464-2.636-4.333.08-.37 0-.548-.323-.709-.922-.5-1.811-1.047-2.733-1.546-.194-.097-.469-.049-.711-.065-.404-.016-.873.097-1.197-.064-1.584-.854-3.12-1.756-4.672-2.674-.243-.145-.42-.419-.631-.628V.965Zm42.685 13.24c-2.296 1.016-4.365.613-6.354-.676-1.019-.66-2.086-1.224-3.137-1.804-1.293-.709-2.635-.74-3.929-.032-2.053 1.127-4.058 2.32-6.08 3.48-.614.354-.953.934-.97 1.643-.032.773.308 1.369.97 1.771.696.42 1.424.387 2.135-.016 1.827-1.047 3.638-2.078 5.449-3.14.76-.452 1.52-.468 2.296-.017.873.5 1.746.999 2.62 1.514.581.338.727.838.452 1.305-.275.467-.792.58-1.358.274a68.665 68.665 0 0 1-2.36-1.353c-.357-.226-.631-.194-.987.016-1.763 1.03-3.509 2.062-5.303 3.044-2.329 1.273-5.061.065-5.66-2.48-.226-1-.048-1.95.47-2.868a61.448 61.448 0 0 1-1.537-.628c-1.908 3.302-3.815 6.588-5.707 9.875.032.048.08.08.113.129 1.681-1.192 3.444-1.595 5.158-.274 1.617 1.224 1.875 2.9 1.164 4.752 1.86.74 2.732 2.11 2.716 4.06 1.148-.081 2.134.192 2.975.885.841.709 1.278 1.627 1.407 2.706 3.525-.886 6.096 2.272 4.786 5.38.566.323 1.132.677 1.714 1 1.1.595 2.36.29 2.91-.693.55-.999.178-2.143-.905-2.771-.485-.29-1.035-.515-1.44-.87-.242-.21-.42-.676-.355-.966.065-.274.453-.548.76-.645.21-.064.533.097.776.226 1.342.757 2.652 1.53 3.994 2.287 1.1.612 2.344.322 2.894-.676.566-1 .21-2.127-.89-2.771l-3.928-2.271c-.178-.097-.356-.194-.502-.339-.307-.338-.372-.724-.097-1.095.259-.37.599-.532 1.051-.37.21.08.404.193.598.306 1.99 1.143 3.962 2.32 5.983 3.415.469.257 1.083.37 1.6.322.793-.065 1.423-.79 1.52-1.514.13-.919-.145-1.676-.986-2.159-1.39-.822-2.797-1.61-4.188-2.416a53.325 53.325 0 0 1-2.295-1.337c-.502-.306-.631-.79-.389-1.24.26-.468.777-.597 1.31-.339.13.065.243.129.372.21 2.005 1.16 4.026 2.303 6.03 3.463.76.435 1.505.402 2.216-.08.68-.468.825-1.16.695-1.918-.129-.773-.614-1.272-1.277-1.659-3.38-1.933-6.742-3.866-10.122-5.815-.194-.113-.469-.193-.533-.37-.13-.323-.291-.742-.178-1.032.097-.241.534-.434.857-.499.21-.048.485.129.711.258 2.636 1.514 5.271 3.028 7.923 4.543.178.096.356.193.533.273.017-.032.05-.064.065-.112a1803.233 1803.233 0 0 1-5.756-9.891Zm5.578-4.655c.13.226.227.403.324.564 1.326 2.288 2.651 4.559 3.945 6.847.145.257.323.644.242.885-.097.29-.42.596-.711.71-.453.16-.792-.146-1.035-.548-1.196-2.079-2.393-4.14-3.605-6.218-.114-.178-.227-.37-.356-.564-1.019.58-1.989 1.143-3.008 1.723 2.426 4.172 4.819 8.313 7.228 12.485 1.035-.596 2.005-1.144 3.007-1.74-.323-.548-.614-1.08-.921-1.595-.372-.644-.291-1.176.194-1.466.517-.306 1.002-.113 1.39.532.453.773.906 1.562 1.374 2.368 1.165-.66 2.28-1.321 3.396-1.933.356-.194.501-.42.501-.838-.016-5.831-.016-11.679-.016-17.51 0-.161-.016-.338-.032-.58-3.978 2.32-7.94 4.607-11.917 6.878Zm-33.29 1.692c-2.426 4.188-4.82 8.312-7.228 12.484 1.018.58 1.989 1.144 3.023 1.74 2.426-4.172 4.819-8.312 7.228-12.468a113.415 113.415 0 0 0-3.024-1.756Zm-.825 19.217c.08-.016.34-.016.55-.112 1.066-.596 2.166-1.144 3.184-1.837.841-.563.987-1.723.453-2.593-.517-.838-1.6-1.208-2.474-.757a31.34 31.34 0 0 0-3.023 1.756c-.728.467-.954 1.369-.695 2.19.242.806.986 1.354 2.005 1.354Zm4.818-.112c-.307.08-.63.129-.922.258a18.5 18.5 0 0 0-1.73.998c-.921.596-1.18 1.724-.647 2.642.518.902 1.617 1.273 2.555.822a15.837 15.837 0 0 0 1.892-1.08c.744-.5 1.018-1.401.744-2.239-.26-.805-1.003-1.337-1.892-1.401Zm3.233 9.037c.97-.339 2.119-.773 2.862-1.804.502-.693.356-1.644-.21-2.288-.566-.644-1.455-.902-2.247-.548-.663.306-1.326.677-1.924 1.112-.696.5-.922 1.417-.63 2.223.306.79 1.066 1.32 2.15 1.305Zm3.493.934c0 1.095.614 1.885 1.52 2.094 1.1.258 2.78-.644 3.153-1.723.404-1.16-.372-2.449-1.585-2.642-.97-.145-2.57.757-2.943 1.675-.08.242-.113.5-.145.596Z" fill="#fff"/></svg>
